X:6177
T:Sorrowful Shilling, The
O:england
R:jig
C:Sean O'Driscoll
D:Laurence Nugent
M:6/8
L:1/8
K:Ador
|:EAA AGA|cde ~g3|age dBG|A~B2 GED|
EAA AGA|cde ~g3|age dBG|1 BAA A2G:|2 BAA A2B||
|:cBc ece|gec edB|~G3 BGB|=fBe dBG|
~c3 ece|gec edc|d~e2 ede|1 cAA A2B:|2 cAA Ace||
|:a2a aba|gee e2d|e^fg edc|~B3 GAB|
cBc dcd|ede g2b|age dBG|1 BAA Ace:|2 BAA A2G||
